docs/media/cursor/cur8.svg

<?xml version="1.0" encoding="UTF-8"?>
<!DOCTYPE svg  PUBLIC '-//W3C//DTD SVG 1.1//EN'  'http://www.w3.org/Graphics/SVG/1.1/DTD/svg11.dtd'>
<svg version="1.1" viewBox="0 0 640 640" xmlns="http://www.w3.org/2000/svg" xmlns:xlink="http://www.w3.org/1999/xlink">
<defs>
<path id="a" d="m420 322.9c0 69.99-57.15 126.81-127.54 126.81s-127.53-56.82-127.53-126.81 57.14-126.81 127.53-126.81 127.54 56.82 127.54 126.81z"/>
<path id="b" d="m485.96 322.9c0 107.48-86.7 194.75-193.5 194.75-106.79 0-193.5-87.27-193.5-194.75 0-107.49 86.71-194.75 193.5-194.75 106.8 0 193.5 87.26 193.5 194.75z"/>
<path id="c" d="m451.96 318.75c0.7 89.27-70.2 162.31-158.23 163s-160.06-71.23-160.76-160.5 70.2-162.31 158.23-163c88.02-0.69 160.06 71.23 160.76 160.5z"/>
</defs>
<use fill="#13c1e2" xlink:href="#a"/>
<use fill-opacity="0" stroke="#12a4e2" stroke-opacity=".44" stroke-width="9" xlink:href="#a"/>
<use fill-opacity="0" stroke="#f1f0e3" stroke-width="2" xlink:href="#b"/>
<use fill-opacity="0" stroke="#f1f0e3" stroke-width="6" xlink:href="#c"/>
</svg>

<?xml version="1.0" encoding="UTF-8" standalone="no"?>
<!DOCTYPE svg PUBLIC "-//W3C//DTD SVG 1.1//EN" "http://www.w3.org/Graphics/SVG/1.1/DTD/svg11.dtd">
<svg version="1.1" xmlns="http://www.w3.org/2000/svg" xmlns:xlink="http://www.w3.org/1999/xlink" preserveAspectRatio="xMidYMid meet" viewBox="0 0 640 640" width="640" height="640"><defs><path d="M420 322.9C420 392.89 362.85 449.71 292.46 449.71C222.07 449.71 164.93 392.89 164.93 322.9C164.93 252.91 222.07 196.09 292.46 196.09C362.85 196.09 420 252.91 420 322.9Z" id="g2bEildBOx"></path><path d="M485.96 322.9C485.96 430.38 399.26 517.65 292.46 517.65C185.67 517.65 98.96 430.38 98.96 322.9C98.96 215.41 185.67 128.15 292.46 128.15C399.26 128.15 485.96 215.41 485.96 322.9Z" id="jeTyTHhrY"></path><path d="M451.96 318.75C452.66 408.02 381.76 481.06 293.73 481.75C205.7 482.44 133.67 410.52 132.97 321.25C132.27 231.98 203.17 158.94 291.2 158.25C379.22 157.56 451.26 229.48 451.96 318.75Z" id="b1jAdkicY8"></path></defs><g><g><g><use xlink:href="#g2bEildBOx" opacity="1" fill="#13c1e2" fill-opacity="1"></use><g><use xlink:href="#g2bEildBOx" opacity="1" fill-opacity="0" stroke="#12a4e2" stroke-width="9" stroke-opacity="0.44"></use></g></g><g><g><use xlink:href="#jeTyTHhrY" opacity="1" fill-opacity="0" stroke="#f1f0e3" stroke-width="2" stroke-opacity="1"></use></g></g><g><g><use xlink:href="#b1jAdkicY8" opacity="1" fill-opacity="0" stroke="#f1f0e3" stroke-width="6" stroke-opacity="1"></use></g></g></g></g></svg>
